X:1
T:Lucis Creator (No. 1)
T:Lucis Creator (No. 1)
T:Oliver Hayes
C:Oliver Hayes
%%score [ 1 2 3 4 ]
L:1/8
Q:1/4=180
M:none
K:Bb
V:1 treble nm="Soprano" snm="S"
V:2 treble nm="Alto" snm="A"
V:3 treble-8 nm="Tenor" snm="T"
V:4 bass nm="Bass" snm="B"
V:1
 z16 | z11 | z16 | z9 | z16 | z11 | z16 | z9 ||[M:4/2] F8 G4 G4 | B8 A6 G2 | G8 c8 | B6 A2 G8 | %12
w: ||||||||2.Qui ma- ne|jun- * ctum|ve- *|* spe- ri,|
 G4 G4 B8 | c6 c2 d4 c4 | B4 A8 F4 | A6 A2 B8 | B2 c2 d4 c8 | c8 z8 | G8 B8 | G4 B8 B4 | B8 A8 | %21
w: di- em vo-|ca- ri prae- *|ci- pis, il-|la- bi- tur|te- * trum cha-|os,|au- di|pre- ces cum|fle- ti-|
 A12 z4 |] z16 | z11 | z16 | z9 | z16 | z11 | z16 | z9 ||[M:4/2] F8 G4 G4 | B8 A6 G2 | G8 c8 | %33
w: bus.|||||||||4.Cae- le- ste|pul- * set|o- *|
 B6 A2 G8 | G8 B4 B4 | c6 c2 d4 c4 | B4 A8 F4 | A6 A2 B8 | B2 c2 d4 c4 c4 | c8 z8 | G8 B8 | %41
w: * sti- um,|vi ta- le|tol- lat prae- *|mi- um, vi-|te- mus om-|ne _ _ no- xi-|um,|pur- ge-|
 G4 B8 B4 | B8 A8 | A12 z4 |] z16 | z11 | z16 | z9 | z16 | z11 | z16 | z9 || z12 |] %53
w: mus om- ne|pes- si-|mum.||||||||||
V:2
 z16 | z11 | z16 | z9 | z16 | z11 | z16 | z9 ||[M:4/2] C8 E4 E4 | F8 F8 | E8 C8 | E8 E8 | D8 F8 | %13
w: ||||||||2.Qui ma- ne|jun- ctum|ve- spe-|ri, di-|em vo-|
 A4 G4 B8 | F4 F8 C4 | F6 F2 D2 C2 D2 E2 | F6 F2 A4 F4 | A8 z8 | E8 D8 | E4 D8 D4 | F12 F4 | %21
w: ca- ri prae-|ci- pis, il-|la- bi- tur _ _ _|te- trum cha- *|os,|au- di|pre- ces cum|fle- ti-|
 F12 z4 |] z16 | z11 | z16 | z9 | z16 | z11 | z16 | z9 ||[M:4/2] C8 E4 E4 | F8 F8 | E8 C8 | E8 E8 | %34
w: bus.|||||||||4.Cae- le- ste|pul- set|o- sti-|um, vi-|
 D8 F8 | A4 G4 B8 | F4 F8 C4 | F6 F2 D2 C2 D2 E2 | F8 A4 F4 | A8 z8 | E8 D8 | E4 D8 D4 | F12 F4 | %43
w: ta- le|tol- lat prae-|mi- um, vi-|te- mus om- * * *|ne no- xi-|um,|pur- ge-|mus om- ne|pes- si-|
 F12 z4 |] z16 | z11 | z16 | z9 | z16 | z11 | z16 | z9 || z12 |] %53
w: mum.||||||||||
V:3
 !stemless!F2 (!stemless!G2 !stemless!B2) !stemless!B2 (!stemless!B2 !stemless!A2) (!stemless!G2 !stemless!F2) | %1
w: 1.Lu- cis _ cre- a- * tor _|
 !stemless!B2 !stemless!c2 (!stemless!A2 !stemless!G2 !stemless!F3) | %2
w: o- pti- me, _ _|
 (!stemless!B2 !stemless!c2) (!stemless!d2 !stemless!B2) !stemless!c2 (!stemless!B2 !stemless!A2) !stemless!G2 | %3
w: lu- * cem _ di- e- * *|
 !stemless!A2 !stemless!A2 !stemless!G2 !stemless!F3 | %4
w: rum pro- fe- rens,|
 !stemless!F2 (!stemless!G2 !stemless!B2) !stemless!B2 (!stemless!B2 !stemless!A2) (!stemless!G2 !stemless!F2) | %5
w: pri- mor- * di- is _ lu- *|
 !stemless!B2 !stemless!c2 (!stemless!A2 !stemless!G2) !stemless!F3 | %6
w: cis no- vae, _ _|
 (!stemless!B2 !stemless!c2) (!stemless!d2 !stemless!B2) !stemless!c2 (!stemless!B2 !stemless!G2) !stemless!A2 | %7
w: mun- * di _ pa- rans _ o-|
 (!stemless!G2 !stemless!A2) !stemless!G2 !stemless!F3 ||[M:4/2] A8 B4 c4 | d4 B4 c8- | %10
w: ri- * gi- nem.-|2.Qui ma- ne|jun- ctum ve-|
 c2 B2 c2 d2 e6 f2 | g8 c8 | B12 d4 | f4 e4 d8 | B4 c8 A4 | c6 c2 f8 | d4 B4 F2 G2 A4 | z8 c4 e4- | %18
w: * * * * * spe-|ri, di-|em vo-|ca- ri prae-|ci- pis, il-|la- bi- tur|te- trum cha- * os,|au- *|
 e2 d2 c4 B4 G4 | E4 F8 G4 | B8 c8- | c12 z4 |] %22
w: * * di pre- ces|cum fle- *|ti- bus.|_|
 !stemless!F2 !stemless!G2- !stemless!B2 !stemless!B2 !stemless!B2- !stemless!A2 !stemless!G2- !stemless!F2 | %23
w: 3.Ne mens _ gra- va- * ta _|
 !stemless!B2 !stemless!c2 !stemless!A2- !stemless!G2 !stemless!F3 | %24
w: cri- mi- ne, _ _|
 !stemless!B2- !stemless!c2 !stemless!d2- !stemless!B2 !stemless!c2 !stemless!B2- !stemless!A2 !stemless!G2 | %25
w: vi- * tae _ sit ex- * *|
 !stemless!A2 !stemless!A2 !stemless!G2 !stemless!F3 | %26
w: sul mu- ne- re,|
 !stemless!F2 !stemless!G2- !stemless!B2 !stemless!B2 !stemless!B2- !stemless!A2 !stemless!G2- !stemless!F2 | %27
w: dum nil _ pe- ren- * ne _|
 !stemless!B2 !stemless!c2 !stemless!A2- !stemless!G2 !stemless!F3 | %28
w: co- gi- tat, _ _|
 !stemless!B2- !stemless!c2 !stemless!d2- !stemless!B2 !stemless!c2 !stemless!B2- !stemless!G2 !stemless!A2 | %29
w: se- * se- * que cul- * pis|
 !stemless!G2- !stemless!A2 !stemless!G2 !stemless!F3 ||[M:4/2] A8 B4 c4 | d4 B4 c8- | %32
w: il- * li- gat.|4.Cae- le- ste|pul- set o-|
 c2 B2 c2 d2 e6 f2 | g8 c8 | B12 d4 | f4 e4 d8 | B4 c8 A4 | c6 c2 f8 | d4 B4 F2 G2 A4 | z8 c4 e4- | %40
w: * * * * * sti-|um, vi-|ta- le|tol- lat prae-|mi- um, vi-|te- mus om-|ne no- xi- * um,|pur- ge-|
 e2 d2 c4 B4 G4 | E4 F8 G4 | B8 c8- | c12 z4 |] %44
w: * * mus om- ne|pes- * *|si- mum.|_|
 !stemless!F2 !stemless!G2- !stemless!B2 !stemless!B2 !stemless!B2- !stemless!A2 !stemless!G2- !stemless!F2 | %45
w: 5.Prae- sta _ Pa- ter _ pi- *|
 !stemless!B2 !stemless!c2 !stemless!A2- !stemless!G2 !stemless!F3 | %46
w: is- si- me, _ _|
 !stemless!B2- !stemless!c2 !stemless!d2- !stemless!B2 !stemless!c2 !stemless!B2- !stemless!A2 !stemless!G2 | %47
w: pa- * tri- * que com- * *|
 !stemless!A2 !stemless!A2 !stemless!G2 !stemless!F3 | %48
w: par u- ni- ce,|
 !stemless!F2 !stemless!G2- !stemless!B2 !stemless!B2 !stemless!B2- !stemless!A2 !stemless!G2- !stemless!F2 | %49
w: cum Spi- * ri- tu _ pa- *|
 !stemless!B2 !stemless!c2 !stemless!A2- !stemless!G2 !stemless!F3 | %50
w: ra- cli- to, _ _|
 !stemless!B2- !stemless!c2 !stemless!d2 !stemless!B2 !stemless!c2 !stemless!B2 !stemless!G2 !stemless!A2 | %51
w: reg- * nans _ per om- * ne|
 !stemless!G2- !stemless!A2 !stemless!G2 !stemless!F3 || %52
w: sae- * cu- lum.|
 !stemless!F2- !stemless!G2 !stemless!F2 !stemless!E3 !stemless!F3 |] %53
w: A- * * men. _|
V:4
 z16 | z11 | z16 | z9 | z16 | z11 | z16 | z9 ||[M:4/2] F,8 E,4 C,4 | B,,2 C,2 D,2 E,2 F,6 E,2 | %10
w: ||||||||2.Qui ma- ne|jun- * * * * ctum|
 C,8 _A,,8 | E,8 C,8 | G,8 D,6 E,2 | F,4 C,4 G,8 | D,2 E,2 F,12 | z16 | z8 z4 F,4- | %17
w: ve- spe-|ri, di-|em vo- *|ca- ri prae-|ci- * pis,||au-|
 F,4 A,2 G,2 F,4 C,4- | C,4 E,4 G,6 G,2 | G,,2 A,,2 B,,4 F,,4 B,,4 | D,8 F,8- | F,12 z4 |] z16 | %23
w: * * * di, au-|* di pre- ces|cum _ fle- * *|ti- bus.|_||
 z11 | z16 | z9 | z16 | z11 | z16 | z9 ||[M:4/2] F,8 E,4 C,4 | B,,2 C,2 D,2 E,2 F,6 E,2 | %32
w: |||||||4.Cae- le- ste|pul- * set _ o- *|
 C,8 _A,,8 | E,8 C,8 | G,8 D,6 E,2 | F,4 C,4 G,8 | D,2 E,2 F,12 | z16 | z8 z4 F,4- | %39
w: * sti-|um, vi-|ta- le _|tol- lat prae-|mi- * um,||pur-|
 F,4 A,2 G,2 F,4 C,4 | C,4 E,4 G,6 G,2 | G,,2 A,,2 B,,4 F,,4 B,,4 | D,8 F,8- | F,12 z4 |] z16 | %45
w: * ge- * mus, pur-|ge- mus om- ne|pes- * * * *|si- mum.|_||
 z11 | z16 | z9 | z16 | z11 | z16 | z9 || z12 |] %53
w: ||||||||

